X: 1
T:Craig-a-Bodich  "1998.3"
M:C
L:1/8
Q:80
C:Donald MacLeod
S:Strathspey
K:HP
|: {g}A2{GdGe}A3/2{d}B/2{g}G3/2A/2{g}B/2e3/2|
{g}A2{GdGe}A3/2{d}B/2{gef}e3/2d/2{g}e/2g3/2|
{ef}e3/2d/2{gBd}B3/2A/2{g}G3/2A/2{g}B/2d3/2|  !
g/2{a}e3/2{A}e/2g3/2{a}B/2d3/2{gef}e2:| [|
{A}e3/2f/2{gf}g3/2e/2a3/2g/2{a}e/2g3/2|
{Gdc}d3/2e/2{gde}d3/2B/2{g}G3/2A/2{g}B/2d3/2|  !
{g}e3/2f/2{gf}g3/2e/2a3/2g/2{a}e/2a3/2|
g/2{a}e3/2{A}e/2g3/2{a}B/2d3/2{gef}e2|
{A}e3/2f/2{gf}g3/2e/2a3/2g/2{a}e/2g3/2|  !
{ef}e3/2d/2{gBd}B3/2A/2{g}G3/2A/2{g}B/2e3/2|
{g}A2{GdGe}A3/2{d}B/2{g}G3/2A/2{g}B/2d3/2|
g/2{a}e3/2{A}e/2g3/2{a}B/2d3/2{gef}e2|]  !
